X:1
T:James Gibb editions
T:Stetit Jesus - Rore
%%score [ 1 2 3 4 ]
L:1/8
Q:1/4=108
M:4/4
K:C
V:1 treble-8 nm="Tenor 1" snm="T. 1"
V:2 treble-8 nm="Tenor 2" snm="T. 2"
V:3 treble-8 nm="Tenor 3" snm="T. 3"
V:4 bass nm="Bass" snm="B."
V:1
"^Stetit Jesus""^Cipriano de Rore\n(1515-65)" d8 | d4 (f4- | f2 ed f4) | e4 z2 e2 | d3 d d2 c2 | %5
w: Ste-|tit Je\-||sus in|me- di- o di-|
 B2 G2 B2 c2 |[M:4/4][K:treble-8] d4 (d4 | e4) d4 | z8 | z2 d2 d4 | B2 (e4 d2- | dc c3 B BA/B/) | %12
w: sci- pu- lo- rum|su- o\-|* rum,||et di-|xit e\- *||
 c2 G2 A2 B2 | (c4 d4) | e4 z4 | f8 | e8 | d8- | d8 || %19
w: is, et di- xit|e\- *|is:|Pax|vo-|bis.||
V:2
 z8 | A8 | A8 | c8 | B4 z2 e2 | d3 d d2 c2 |[M:4/4][K:treble-8] B2 G2 (B2 AB | cB c2) B2 d2 | %8
w: |Ste-|tit|Je-|sus in|me- di- o di-|sci- pu- lo\- * *|* * * rum su-|
 e4 e2 c2 | c2 B2 A4 | G8 | z2 E2 G4 | E2 (e4 d2- | dc c3 B BA/B/) | c4 z4 | c8- | c8 | B8 | A8 || %19
w: o- rum, et|di- xit e-|1s|et di-|xit e\- *||is:|Pax||vo-|bis.|
V:3
 z4 D4- | D4 D4 | (F8 | G8) | G8 | z4 z2 A2 |[M:4/4][K:treble-8] G3 G G2 F2 | E2 C2 G2 A2 | %8
w: Ste\-|* tit|Je\-||sus|in|me- di- o di-|sci- pu- lo- rum|
 B2 (c3 B AG/F/ | D2 G3 ^F/E/ F2) | G4 z2 D2 | E2 C2 D4 | C4 z2 G2 | F2 E2 G4 | G4 z4 | A8 | G8- | %17
w: su- o\- * * * *||rum, et|di- xit e-|is, et|di- xit e-|is:|Pax|vo\-|
 G8 | ^F8 || %19
w: |bis.|
V:4
 z8 | z4 D,4- | D,4 D,4 | C,8 | G,,8- | G,,4 z4 |[M:4/4] z4 z2 D,2 | G,3 G, G,2 F,2 | %8
w: |Ste\-|* tit|Je-|sus||in|me- dl- o di-|
 E,2 C,2 E,2 F,2 | G,4 D,4 | E,2 C,2 C,2 B,,2 | A,,4 G,,4 | z2 C,2 C,2 B,,2 | (A,,4 G,,4) | %14
w: sci- pu- lo- rum|su- o-|rum, et di- xit|e- is,|et di- xit|e\- *|
 C,4 z4 | F,8 | (C,8 | G,,8) | D,8 || %19
w: is:|Pax|vo\-||bis.|

